nameplates/mina.svg

<svg width="1947" height="861" viewBox="0 0 1947 861" fill="none" xmlns="http://www.w3.org/2000/svg">
<g clip-path="url(#clip0_23116_36)">
<path d="M659.732 30.2209H478.207L355.742 453.709L226.561 30.2209H0L40.295 75.8486V516.126L0 561.556H157.822L91.8489 502.497V185.869L287.003 811.224L470.701 188.831V516.126L430.406 561.556H659.732L619.437 516.126V75.8486L659.732 30.2209Z" fill="white"/>
<path d="M891.231 30.2209H662.102L702.2 75.8486V516.126L662.102 561.556H891.231L851.134 516.126V75.8486L891.231 30.2209Z" fill="white"/>
<path d="M1311.96 30.2209L1377.93 89.4777V457.857L1119.37 30.2209H914.144L954.439 75.8486V516.126L914.144 561.556H1072.16L1005.99 502.497V223.003L1425.14 861L1429.68 593.555V75.8486L1469.78 30.2209H1311.96Z" fill="white"/>
<path d="M1902.36 526.002L1648.74 0H1644.19L1452 408.476H1685.28L1737.62 522.249L1696.54 567.877H1947L1902.16 526.2L1902.36 526.002ZM1521.93 365.219L1594.81 207.991L1666.12 365.219H1521.93Z" fill="white"/>
</g>
<defs>
<clipPath id="clip0_23116_36">
<rect width="1947" height="861" fill="white"/>
</clipPath>
</defs>
</svg>

<svg xmlns="http://www.w3.org/2000/svg" width="1947" height="861" fill="none"><g fill="#fff" clip-path="url(#a)"><path d="M659.732 30.22H478.207L355.742 453.71 226.561 30.221H0l40.295 45.628v440.277L0 561.556h157.822l-65.973-59.059V185.869l195.154 625.355 183.698-622.393v327.295l-40.295 45.43h229.326l-40.295-45.43V75.849zm231.499 0H662.102L702.2 75.85v440.277l-40.098 45.43h229.129l-40.097-45.43V75.849zm420.729 0 65.97 59.258v368.379L1119.37 30.221H914.144l40.295 45.628v440.277l-40.295 45.43h158.016l-66.17-59.059V223.003L1425.14 861l4.54-267.445V75.849l40.1-45.628zm590.4 495.782L1648.74 0h-4.55L1452 408.476h233.28l52.34 113.773-41.08 45.628H1947l-44.84-41.677zm-380.43-160.783 72.88-157.228 71.31 157.228z"/></g><defs><clipPath id="a"><path fill="#fff" d="M0 0h1947v861H0z"/></clipPath></defs></svg>
